svg/Pictogram/pictograms-hazard_signs-32.svg

<svg viewBox="0 0 94.264 82.947" width="94.26" xmlns="http://www.w3.org/2000/svg"><path d="m46.36.062c-1.504.232-2.826 1.121-3.582 2.438l-42.11 72.949c-.88 1.533-.895 3.441 0 4.986.896 1.545 2.559 2.514 4.358 2.512h84.22c1.801.002 3.463-.967 4.359-2.512.895-1.545.879-3.453 0-4.986l-42.11-72.949c-1.035-1.803-3.085-2.76-5.134-2.438" fill="#fdee1c"/><g fill="#010101"><path d="m46.744 2.121c-.814.127-1.508.617-1.9 1.301l-42.4 73.45c-.465.809-.466 1.846 0 2.65.474.816 1.348 1.35 2.3 1.35h84.8c.951 0 1.826-.533 2.299-1.35.467-.805.465-1.842 0-2.65l-42.4-73.45c-.545-.95-1.598-1.475-2.7-1.301m.4 8.449l36 63.4h-72.05l36.05-63.4"/><path d="m46.932 34.32l-1.95 11.35-8-8.35 4.5 10.65-11.2-2.75 9.5 6.551-10.899 3.75 11.5.35-7.101 9.05 9.9-5.898-1.1 11.449 5.1-10.301 5.3 10.201-1.301-11.451 9.951 5.75-7.25-8.898 11.5-.551-10.951-3.6 9.402-6.701-11.152 2.9 4.25-10.65-7.799 8.451-2.2-11.301m.2 11.701c3.514 0 6.35 2.836 6.35 6.35s-2.836 6.4-6.35 6.4c-3.515 0-6.351-2.887-6.351-6.4s2.837-6.35 6.351-6.35m0 .949c-3 0-5.4 2.398-5.4 5.4s2.398 5.449 5.4 5.449 5.451-2.447 5.451-5.449-2.449-5.4-5.451-5.4"/></g></svg>

<?xml version="1.0" encoding="iso-8859-1"?>
<!-- Generator: Adobe Illustrator 13.0.2, SVG Export Plug-In . SVG Version: 6.00 Build 14948)  --><svg baseProfile="tiny" height="82.947px" id="Layer_1" space="preserve" version="1.2" viewBox="0 0 94.264 82.947" width="94.264px" x="0px" xmlns="http://www.w3.org/2000/svg" xmlns:xlink="http://www.w3.org/1999/xlink" y="0px">
  <metadata>
    <rdf:RDF xmlns:cc="http://web.resource.org/cc/" xmlns:dc="http://purl.org/dc/elements/1.1/" xmlns:rdf="http://www.w3.org/1999/02/22-rdf-syntax-ns#">
      <cc:Work rdf:about="">
        <dc:title></dc:title>
        <dc:description></dc:description>
        <dc:subject>
          <rdf:Bag>
            <rdf:li></rdf:li>
          </rdf:Bag>
        </dc:subject>
        <dc:publisher>
          <cc:Agent rdf:about="http://openclipart.org">
            <dc:title>Source: Open Clip Art Library, Source: Open Clip Art Library</dc:title>
          </cc:Agent>
        </dc:publisher>
        <dc:creator>
          <cc:Agent>
            <dc:title></dc:title>
          </cc:Agent>
        </dc:creator>
        <dc:rights>
          <cc:Agent>
            <dc:title></dc:title>
          </cc:Agent>
        </dc:rights>
        <dc:date></dc:date>
        <dc:format>image/svg+xml</dc:format>
        <dc:type rdf:resource="http://purl.org/dc/dcmitype/StillImage"/>
        <cc:license rdf:resource="http://en.wikipedia.org/wiki/Public_domain"/>
        <dc:language>en</dc:language>
      </cc:Work>
    </rdf:RDF>
  </metadata>
  <path d="M46.356,0.062C44.852,0.294,43.53,1.183,42.774,2.5L0.666,75.449c-0.88,1.533-0.895,3.441,0,4.986  c0.896,1.545,2.559,2.514,4.358,2.512H89.24c1.801,0.002,3.463-0.967,4.359-2.512c0.895-1.545,0.879-3.453,0-4.986L51.49,2.5  C50.455,0.697,48.405-0.26,46.356,0.062L46.356,0.062z" fill="#FDEE1C"/>
  <path d="M46.744,2.121c-0.814,0.127-1.508,0.617-1.9,1.301L2.444,76.871c-0.465,0.809-0.466,1.846,0,2.65  c0.474,0.816,1.348,1.35,2.3,1.35h84.801c0.951,0,1.826-0.533,2.299-1.35c0.467-0.805,0.465-1.842,0-2.65l-42.4-73.449  C48.899,2.472,47.846,1.947,46.744,2.121L46.744,2.121z M47.144,10.57l36,63.4H11.093L47.144,10.57L47.144,10.57z" fill="#010101"/>
  <path d="M46.932,34.322l-1.95,11.35l-8-8.35l4.5,10.65l-11.2-2.75l9.5,6.551l-10.899,3.75l11.5,0.35l-7.101,9.049  l9.9-5.898l-1.1,11.449l5.1-10.301l5.3,10.201l-1.301-11.451l9.951,5.75l-7.25-8.898l11.5-0.551l-10.951-3.6l9.402-6.701  l-11.152,2.9l4.25-10.65l-7.799,8.451L46.932,34.322L46.932,34.322z M47.132,46.023c3.514,0,6.35,2.836,6.35,6.35  s-2.836,6.4-6.35,6.4c-3.515,0-6.351-2.887-6.351-6.4S43.618,46.023,47.132,46.023L47.132,46.023z M47.132,46.972  c-3.002,0-5.4,2.398-5.4,5.4s2.398,5.449,5.4,5.449s5.451-2.447,5.451-5.449S50.134,46.972,47.132,46.972L47.132,46.972z" fill="#010101"/>
</svg>
